frontend/src/assets/scalable/club.svg

<?xml version="1.0" encoding="utf-8"?>
<!-- Generator: Adobe Illustrator 25.0.0, SVG Export Plug-In . SVG Version: 6.00 Build 0)  -->
<svg version="1.1" id="Calque_1" xmlns="http://www.w3.org/2000/svg" xmlns:xlink="http://www.w3.org/1999/xlink" x="0px" y="0px"
	 viewBox="0 0 24 24" style="enable-background:new 0 0 24 24;" xml:space="preserve">
<style type="text/css">
	.clubst0{fill:#DC3545;}
	.clubst1{fill:url(#SVGID_1_);}
	.clubst2{fill:url(#SVGID_2_);}
	.clubst3{fill:url(#SVGID_3_);}
</style>
<path class="clubst0" d="M20.5,10c0,1.1-0.9,2-2,2s-2-0.9-2-2s0.9-2,2-2S20.5,8.9,20.5,10"/>
<linearGradient id="SVGID_1_" gradientUnits="userSpaceOnUse" x1="15" y1="12" x2="22" y2="12" gradientTransform="matrix(1 0 0 -1 0 26)">
	<stop  offset="0" style="stop-color:#B6B7B7"/>
	<stop  offset="1" style="stop-color:#E0E0DF"/>
</linearGradient>
<path class="clubst1" d="M22,16c0.1-2.1-1.4-3.9-3.5-4c-2.1,0.1-3.6,1.9-3.5,4H22z"/>
<path class="clubst0" d="M7.5,10.1c0,1.1-0.9,2-2,2s-2-0.9-2-2s0.9-2,2-2S7.5,9,7.5,10.1"/>
<linearGradient id="SVGID_2_" gradientUnits="userSpaceOnUse" x1="2.01" y1="11.87" x2="9" y2="11.87" gradientTransform="matrix(1 0 0 -1 0 26)">
	<stop  offset="0" style="stop-color:#B6B7B7"/>
	<stop  offset="1" style="stop-color:#E0E0DF"/>
</linearGradient>
<path class="clubst2" d="M9,16.1c0.1-2.1-1.4-3.9-3.5-4c-2.1,0.1-3.6,1.9-3.5,4H9z"/>
<path class="clubst0" d="M15.4,8.6c0,1.9-1.5,3.4-3.4,3.4s-3.4-1.5-3.4-3.4c0-1.9,1.5-3.4,3.4-3.4C13.9,5.1,15.4,6.7,15.4,8.6"/>
<linearGradient id="SVGID_3_" gradientUnits="userSpaceOnUse" x1="6" y1="10.57" x2="18" y2="10.57" gradientTransform="matrix(1 0 0 -1 0 26)">
	<stop  offset="0" style="stop-color:#B6B7B7"/>
	<stop  offset="1" style="stop-color:#E0E0DF"/>
</linearGradient>
<path class="clubst3" d="M18,18.9c0-3.8-2.7-6.9-6-6.9s-6,3.1-6,6.9H18z"/>
</svg>

<?xml version="1.0" encoding="UTF-8" standalone="no"?>
<!-- Generator: Adobe Illustrator 25.0.0, SVG Export Plug-In . SVG Version: 6.00 Build 0)  -->

<svg
   version="1.1"
   id="Calque_1"
   x="0px"
   y="0px"
   viewBox="0 0 24 24"
   style="enable-background:new 0 0 24 24;"
   xml:space="preserve"
   sodipodi:docname="club.svg"
   inkscape:export-filename="club.svg"
   inkscape:export-xdpi="96"
   inkscape:export-ydpi="96"
   inkscape:version="1.2.2 (b0a84865, 2022-12-01)"
   xmlns:inkscape="http://www.inkscape.org/namespaces/inkscape"
   xmlns:sodipodi="http://sodipodi.sourceforge.net/DTD/sodipodi-0.dtd"
   xmlns="http://www.w3.org/2000/svg"
   xmlns:svg="http://www.w3.org/2000/svg"><defs
   id="defs7587" /><sodipodi:namedview
   id="namedview7585"
   pagecolor="#505050"
   bordercolor="#eeeeee"
   borderopacity="1"
   inkscape:showpageshadow="0"
   inkscape:pageopacity="0"
   inkscape:pagecheckerboard="0"
   inkscape:deskcolor="#505050"
   showgrid="false"
   inkscape:zoom="9.8333333"
   inkscape:cx="8.2372881"
   inkscape:cy="12"
   inkscape:window-width="1440"
   inkscape:window-height="872"
   inkscape:window-x="0"
   inkscape:window-y="28"
   inkscape:window-maximized="0"
   inkscape:current-layer="Calque_1" />
<style
   type="text/css"
   id="style7555">
	.clubst0{fill:#DC3545;}
	.clubst1{fill:url(#SVGID_1_);}
	.clubst2{fill:url(#SVGID_2_);}
	.clubst3{fill:url(#SVGID_3_);}
</style>

<linearGradient
   id="SVGID_1_"
   gradientUnits="userSpaceOnUse"
   x1="15"
   y1="12"
   x2="22"
   y2="12"
   gradientTransform="matrix(1,0,0,-1,0,26)">
	<stop
   offset="0"
   style="stop-color:#B6B7B7"
   id="stop7559" />
	<stop
   offset="1"
   style="stop-color:#E0E0DF"
   id="stop7561" />
</linearGradient>


<linearGradient
   id="SVGID_2_"
   gradientUnits="userSpaceOnUse"
   x1="2.01"
   y1="11.87"
   x2="9"
   y2="11.87"
   gradientTransform="matrix(1,0,0,-1,0,26)">
	<stop
   offset="0"
   style="stop-color:#B6B7B7"
   id="stop7568" />
	<stop
   offset="1"
   style="stop-color:#E0E0DF"
   id="stop7570" />
</linearGradient>


<linearGradient
   id="SVGID_3_"
   gradientUnits="userSpaceOnUse"
   x1="6"
   y1="10.57"
   x2="18"
   y2="10.57"
   gradientTransform="matrix(1,0,0,-1,0,26)">
	<stop
   offset="0"
   style="stop-color:#B6B7B7"
   id="stop7577" />
	<stop
   offset="1"
   style="stop-color:#E0E0DF"
   id="stop7579" />
</linearGradient>
<g
   id="g8075"
   transform="matrix(1.199434,0,0,1.199434,-2.393208,-2.4505121)"><path
     class="clubst0"
     d="m 20.5,10 c 0,1.1 -0.9,2 -2,2 -1.1,0 -2,-0.9 -2,-2 0,-1.1 0.9,-2 2,-2 1.1,0 2,0.9 2,2"
     id="path7557" /><path
     class="clubst1"
     d="m 22,16 c 0.1,-2.1 -1.4,-3.9 -3.5,-4 -2.1,0.1 -3.6,1.9 -3.5,4 z"
     id="path7564"
     style="fill:url(#SVGID_1_)" /><path
     class="clubst0"
     d="m 7.5,10.1 c 0,1.1 -0.9,2 -2,2 -1.1,0 -2,-0.9 -2,-2 0,-1.1 0.9,-2 2,-2 1.1,0 2,0.9 2,2"
     id="path7566" /><path
     class="clubst2"
     d="M 9,16.1 C 9.1,14 7.6,12.2 5.5,12.1 3.4,12.2 1.9,14 2,16.1 Z"
     id="path7573"
     style="fill:url(#SVGID_2_)" /><path
     class="clubst0"
     d="M 15.4,8.6 C 15.4,10.5 13.9,12 12,12 10.1,12 8.6,10.5 8.6,8.6 8.6,6.7 10.1,5.2 12,5.2 c 1.9,-0.1 3.4,1.5 3.4,3.4"
     id="path7575" /><path
     class="clubst3"
     d="M 18,18.9 C 18,15.1 15.3,12 12,12 8.7,12 6,15.1 6,18.9 Z"
     id="path7582"
     style="fill:url(#SVGID_3_)" /></g>
</svg>
